icons/line/film.svg

<svg width="24" height="24" fill="none" xmlns="http://www.w3.org/2000/svg"><path d="M8 4H6a2 2 0 00-2 2v2m4-4h8M8 4v4m0 12H6a2 2 0 01-2-2v-2m4 4h8m-8 0v-4m8 4h2a2 2 0 002-2v-2m-4 4v-4m0-12h2a2 2 0 012 2v2m-4-4v4m4 4h-4m4 0v4m0-4V8m-4 4H8m8 0v4m0-4V8m-8 4H4m4 0V8m0 4v4m-4-4V8m0 4v4m4-8H4m0 8h4m8 0h4m0-8h-4" stroke="currentColor" stroke-width="2" stroke-linecap="round" stroke-linejoin="round"/></svg>

<svg width="24" height="24" viewBox="0 0 24 24" fill="none" xmlns="http://www.w3.org/2000/svg">
<path d="M8 4H6C4.89543 4 4 4.89543 4 6V8M8 4H16M8 4V8M8 20H6C4.89543 20 4 19.1046 4 18V16M8 20H16M8 20V16M16 20H18C19.1046 20 20 19.1046 20 18V16M16 20V16M16 4H18C19.1046 4 20 4.89543 20 6V8M16 4V8M20 12H16M20 12V16M20 12V8M16 12H8M16 12V16M16 12V8M8 12H4M8 12V8M8 12V16M4 12V8M4 12V16M8 8H4M4 16H8M16 16H20M20 8H16" stroke="currentColor" stroke-width="2" stroke-linecap="round" stroke-linejoin="round"/>
</svg>
